X: 01053
T: HOME FOR THE HOLIDAYS
C: Bob McQuillen Dec'75
B: Bob's Note Book 1 #53
%R: reel
Z: 2019 John Chambers <jc:trillian.mit.edu>
M: C
L: 1/8
K: A
|: E2A2 cBAG | A2c2 E4   | B2c2 dcBA | B2e2 E4 |\
|  c2cd e2dc | BABc d2cd | e2a2 gfed | cA4- A3 :|
|| c2c2 cBAc | B8        | B2B2 BAGB | A8 |\
|  F2GA E2A2 | F2GA E2A2 | c2c2 BAB2 | A8 |]
%%begintext align
%% Thank you, Barney
%% O'Niel, for this tune.
%%endtext

%%sep 1 1 500

%%sep 1 1 500

